X: 1330
T: Lûtfedip Gel Bezme
C: Ahmet Avni Konuk
O: Turkey
F: http://compmusic.upf.edu/node/140
N: sehnaz--kupe--duyek--lutfedip--ahmet_avni_konuk
N: makam= sehnaz
N: form= kupe
N: usul= duyek = 8/4
M: 8/4
L: 1/16
K: C _7/8B ^1/4f ^c ^g
Q: 1/4=57
%%MIDI tuningsystem comma53
z4 a2a2 a4 a4 g2a2 =b2{=c'}ba a6z2  | \
w:  Lût *  *  fe dip  *  *  *  *  *  gel   | 
z4 g2a2 a4 a2g2 g2f2 f2e2 a3g f2e2  | 
w:  bez *  *  me  *  rev *  *  *  nâk   | 
d4 e2d2 c4 d4 e8 e4 =f4  | =f2e2 =b2a2 a2g2 g2^1/4f2 fefg f2e2 e6z2  | 
w:  *  ver  *  *  e fen dim   |  *  *  nâz  *  *  *  i *  le    | 
z4 d8 a4 a2=g2 g2^3/4f2 g3^2/4f e4  | \
w:  Mut rıb  â *  *  *  gâz   | 
z4 e2^3/4f2 e4 f4 =g4 a2g2 =f3e d4  | 
w:  ey *  *  le dik *  *  çe   | 
z4 =g4 ^3/4f4 e2=f2 e2d2 d2f2 e2d2 c2B2  | \
w:  nağ *  me  *  i  *  *  *  Şeh  | 
A4 e4 d4 c2d2 c2B2 B2A2 A6z2  | 
w:  *  nâz  *  i *  le    | 
|


